X:1
T:“L'Inverno” (Winter) - II
T:from Concerto No. 4 in F minor, Op. 8, RV 297
T:Antonio Vivaldi
T:“L'Inverno” (Winter) - II
T:Public Domain
C:Antonio Vivaldi
Z:Public Domain
L:1/8
Q:1/4=30
M:4/4
K:Eb
V:1 treble nm="Flute"
V:1
"^Largo""^Passar al foco i dì quieti e contenti\nMentre la pioggia fuor bagna ben cento" e(b/a/) g(f/e/) fB z B | %1
 (a/g/)(f/e/) da ag z g | f(g/a/) b(c'/d'/) e(f/g/) a(b/c'/) | d(e/f/) g(a/b/) c(d/e/) f(g/e/) | %4
 d2- d/(B/=A/B/) f2- f/(B/A/B/) | g2- g/(B/=A/B/) =a2- a/(f/e/f/) | %6
 bB z b (b/!courtesy!=a/)(g/f/) (e/d/)(c/B/) | Tc3 B B2 z2 | B(f/e/) d(c/B/) cF z F | %9
 (e/d/)(c/B/) =Ae Ted z B | (a/g/)(f/e/) da Tag z g | c(d/e/) f(g/a/) d(e/f/) g(a/b/) | %12
 e(f/g/) a(b/c'/) d3 (d/e/) | f/(d/c/B/) (g/a/b/)g/ fB z (d/e/) | %14
 f/(d/c/B/) (g/a/b/)g/ fB z (f/b/) | g(f/e/) d>e Te4- | e8 | !fermata!e8 |] %18

